packages/icons/web/settings_filled_large.svg

<svg width="24" height="24" viewBox="0 0 24 24" fill="none" xmlns="http://www.w3.org/2000/svg">
<path fill-rule="evenodd" clip-rule="evenodd" d="M20.4519 14.69C21.5429 14.484 22.0599 13.803 21.9999 12.645C21.9999 12.109 21.9949 11.572 21.9849 11.035V11.012C21.9807 10.7602 21.9201 10.5126 21.8076 10.2873C21.6951 10.0619 21.5336 9.86469 21.3349 9.70999L21.3289 9.70499C21.1251 9.51792 20.8716 9.39362 20.5989 9.34699C20.1707 9.25016 19.7395 9.16745 19.3059 9.09899C19.2284 9.08805 19.1507 9.07805 19.0729 9.06899L19.0969 9.03499C19.1359 8.97999 19.1739 8.92699 19.2129 8.87499L19.8359 7.95899L19.8559 7.92899V7.94499C20.5019 7.04099 20.4009 6.19699 19.5529 5.41299C19.1659 5.03635 18.7816 4.657 18.3999 4.27499L18.3789 4.25599L18.3459 4.22899C17.9369 3.88099 17.4789 3.72899 16.9669 3.77099H16.9589C16.7228 3.79356 16.4939 3.86508 16.2869 3.98099L16.2689 3.99099L16.2319 4.01099C15.8999 4.22799 15.4659 4.53699 14.9309 4.94099C14.8572 4.47691 14.7719 4.01476 14.6749 3.55499V3.57799C14.4919 2.48599 13.8329 1.96299 12.6929 2.00599C12.1142 2.00516 11.5355 2.01016 10.9569 2.02099C10.7114 2.03719 10.472 2.10401 10.2536 2.21725C10.0352 2.33049 9.8426 2.4877 9.68791 2.67899C9.52762 2.865 9.4114 3.0848 9.34791 3.32199C9.34502 3.33762 9.34236 3.35329 9.33991 3.36899C9.22442 3.88106 9.12901 4.39746 9.05391 4.91699L9.03391 4.90299C8.98147 4.86553 8.92846 4.82885 8.87491 4.79299C8.56491 4.56899 8.24891 4.34999 7.93091 4.13499H7.93791C7.00791 3.48999 6.15491 3.59999 5.38291 4.46799C5.00191 4.84999 4.62491 5.23299 4.25291 5.61399L4.25091 5.61599C4.24391 5.62599 4.23791 5.63599 4.22891 5.64499C4.0535 5.83155 3.92211 6.05504 3.84441 6.29904C3.76671 6.54304 3.74467 6.80135 3.77991 7.05499L3.77291 7.03099C3.7947 7.27317 3.86837 7.50782 3.98891 7.71899L4.00491 7.75199C4.25091 8.14199 4.51191 8.52399 4.78691 8.89799C4.75591 8.96999 4.72691 9.04199 4.70191 9.11499C4.31791 9.17499 3.93891 9.24499 3.56191 9.32299L3.57891 9.31499C2.49191 9.52899 1.96891 10.201 2.00691 11.329C2.00488 11.5 2.00488 11.5 2.00488 12C2.00488 12.5 2.02014 12.5 2.02 13C2.02 13.2227 2.09986 13.5 2.09986 13.5C2.09986 13.5 2.1973 13.8302 2.61791 14.247C2.83991 14.467 3.10291 14.604 3.40791 14.659L3.34591 14.651C3.79591 14.761 4.25091 14.851 4.70891 14.922L4.80591 14.937L4.91791 14.953C4.87547 15.0092 4.83413 15.0662 4.79391 15.124C4.56991 15.431 4.35491 15.74 4.15091 16.054L4.13591 16.076C3.51591 16.982 3.62191 17.822 4.45291 18.593L4.45991 18.6L4.47691 18.615C4.85791 18.988 5.23491 19.359 5.60691 19.731L5.66191 19.778C6.06991 20.125 6.52891 20.277 7.03991 20.235H7.04791C7.31242 20.2108 7.56673 20.1211 7.78791 19.974L7.79091 19.971C8.17291 19.731 8.54191 19.478 8.89891 19.213C8.97191 19.245 9.04691 19.275 9.12291 19.305C9.18391 19.688 9.25391 20.069 9.33091 20.451V20.429C9.51491 21.519 10.1759 22.043 11.3149 22H11.3609C11.9079 22 12.4509 21.994 12.9869 21.985H13.0489C13.2945 21.9688 13.5341 21.902 13.7527 21.7888C13.9713 21.6755 14.164 21.5183 14.3189 21.327C14.4799 21.1413 14.5965 20.9214 14.6599 20.684L14.6689 20.637C14.7669 20.197 14.8519 19.754 14.9239 19.305L14.9549 19.089L14.9699 19.104C15.0249 19.141 15.0799 19.18 15.1329 19.221C15.4439 19.439 15.7599 19.657 16.0769 19.871H16.0619C16.9629 20.514 17.8049 20.417 18.5869 19.577L18.6169 19.546C19.0019 19.162 19.3809 18.776 19.7549 18.392C19.7623 18.3815 19.7703 18.3715 19.7789 18.362C20.1429 17.956 20.2929 17.485 20.2279 16.952L20.2349 16.974C20.2123 16.745 20.1472 16.5221 20.0429 16.317L20.0309 16.295C20.0198 16.2734 20.0081 16.252 19.9959 16.231C19.7529 15.853 19.4949 15.484 19.2209 15.124L19.2219 15.122C19.2536 15.0485 19.2839 14.9745 19.3129 14.9C19.6909 14.838 20.0709 14.767 20.4519 14.69ZM16.0049 12C16.0049 13.0609 15.5835 14.0783 14.8333 14.8284C14.0832 15.5786 13.0658 16 12.0049 16C10.944 16 9.92663 15.5786 9.17649 14.8284C8.42634 14.0783 8.00491 13.0609 8.00491 12C8.00491 10.9391 8.42634 9.92171 9.17649 9.17156C9.92663 8.42142 10.944 7.99999 12.0049 7.99999C13.0658 7.99999 14.0832 8.42142 14.8333 9.17156C15.5835 9.92171 16.0049 10.9391 16.0049 12Z" fill="#212933"/>
</svg>

<svg width="24" height="24" fill="none" xmlns="http://www.w3.org/2000/svg">
    <path fill-rule="evenodd" clip-rule="evenodd" d="M20.452 14.69c1.09-.206 1.608-.887 1.548-2.045 0-.536-.005-1.073-.015-1.61v-.023a1.685 1.685 0 00-.65-1.302l-.006-.005a1.438 1.438 0 00-.73-.358c-.428-.097-.86-.18-1.293-.248a9.668 9.668 0 00-.233-.03l.024-.034c.039-.055.077-.108.116-.16l.623-.916.02-.03v.016c.646-.904.545-1.748-.303-2.532-.387-.377-.771-.756-1.153-1.138l-.021-.019-.033-.027c-.41-.348-.867-.5-1.38-.458h-.007a1.708 1.708 0 00-.672.21l-.018.01-.037.02a24.61 24.61 0 00-1.301.93 27.95 27.95 0 00-.256-1.386v.023c-.183-1.092-.842-1.615-1.982-1.572-.579 0-1.157.004-1.736.015a1.783 1.783 0 00-1.27.658c-.16.186-.276.406-.34.643a1.7 1.7 0 00-.007.047 19.783 19.783 0 00-.286 1.548l-.02-.014a6.399 6.399 0 00-.16-.11c-.31-.224-.625-.443-.943-.658h.007c-.93-.645-1.783-.535-2.555.333-.381.382-.758.765-1.13 1.146l-.002.002c-.007.01-.013.02-.022.029a1.714 1.714 0 00-.45 1.41l-.006-.024c.022.242.095.477.216.688l.016.033c.246.39.507.772.782 1.146-.031.072-.06.144-.085.217-.384.06-.763.13-1.14.208l.017-.008c-1.087.214-1.61.886-1.572 2.014-.002.171-.002.171-.002.671s.015.5.015 1c0 .223.08.5.08.5s.097.33.518.747c.222.22.485.357.79.412l-.062-.008c.45.11.905.2 1.363.271l.097.015.112.016a20.86 20.86 0 00-.767 1.101l-.015.022c-.62.906-.514 1.746.317 2.517l.007.007.017.015c.38.373.758.744 1.13 1.116l.055.047c.408.347.867.499 1.378.457h.008a1.6 1.6 0 00.74-.261l.003-.003c.382-.24.75-.493 1.108-.758.073.032.148.062.224.092.06.383.13.764.208 1.146v-.022c.184 1.09.845 1.614 1.984 1.571h.046c.547 0 1.09-.006 1.626-.015h.062a1.786 1.786 0 001.27-.658 1.62 1.62 0 00.34-.643l.01-.047c.098-.44.183-.883.255-1.332l.03-.216.016.015c.055.037.11.076.163.117.31.218.627.436.944.65h-.015c.9.643 1.743.546 2.525-.294l.03-.031c.385-.384.764-.77 1.138-1.154a.315.315 0 01.024-.03c.364-.406.514-.877.449-1.41l.007.022a1.85 1.85 0 00-.192-.657l-.012-.022a1.416 1.416 0 00-.035-.064 17.048 17.048 0 00-.775-1.107v-.002c.033-.073.063-.147.092-.222.378-.062.758-.133 1.139-.21zM16.005 12a4 4 0 11-8 0 4 4 0 018 0z" fill="currentColor"/>
</svg>
